.local/share/icons/Gruvbox-Plus-Dark/panel/16/pushbullet-indicator-sync3-light.svg

<svg xmlns="http://www.w3.org/2000/svg" width="16" height="16" version="1.1">
 <defs>
  <style id="current-color-scheme" type="text/css">
   .ColorScheme-Text { color:#ebdbb2; } .ColorScheme-Highlight { color:#458588; }
  </style>
 </defs>
 <path style="fill:currentColor" class="ColorScheme-Text" d="M -2e-4,2 V 14 H 1.9998 V 2 Z M 3.9998,2 V 14 L 8.252,13.967 C 11.183,13.934 11.46,13.895 12.699,13.291 15.401,11.975 16.679,8.786 15.64,5.9472 14.954,4.0721 13.392,2.6844 11.403,2.1795 10.778,2.0209 10.383,1.9998 7.955,1.9998 H 3.9993 Z M 10,2.3437 11.414,3.7578 12.121,4.4649 11.414,5.1719 10,6.586 9.293,5.879 10.221,4.9512 C 9.519,4.8654 8.706,5.0517 7.879,5.879 5.7574,8 7.879,10.121 7.879,10.121 L 7.172,10.828 C 7.172,10.828 4.3433,8 7.172,5.172 8.22,4.1237 9.273,3.8598 10.178,3.9337 L 9.293,3.051 10,2.344 Z M 12.828,5.1718 C 12.828,5.1718 15.656,8 12.828,10.828 11.779,11.876 10.726,12.14 9.822,12.066 L 10.707,12.949 10,13.656 8.586,12.242 7.879,11.535 8.586,10.828 10,9.414 10.707,10.121 9.779,11.049 C 10.48,11.135 11.294,10.948 12.121,10.121 14.242,8 12.121,5.8788 12.121,5.8788 L 12.828,5.1726 Z"/>
</svg>

<svg width="16" height="16" version="1.1" xmlns="http://www.w3.org/2000/svg">
  <defs>
    <style id="current-color-scheme" type="text/css">.ColorScheme-Text { color:#ebdbb2; } .ColorScheme-Highlight { color:#458588; } .ColorScheme-NeutralText { color:#fe8019; } .ColorScheme-PositiveText { color:#689d6a; } .ColorScheme-NegativeText { color:#fb4934; }</style>
  </defs>
  <path class="ColorScheme-Text" d="m-2e-4 2v12h2v-12zm4 0v12l4.252-0.033c2.931-0.033 3.208-0.072 4.447-0.676 2.702-1.316 3.98-4.505 2.941-7.344-0.686-1.875-2.248-3.263-4.237-3.768-0.625-0.1586-1.02-0.1797-3.448-0.1797h-3.956zm6 0.3437 1.414 1.414 0.707 0.7071-2.121 2.121-0.707-0.707 0.928-0.9278c-0.702-0.0858-1.515 0.1005-2.342 0.9278-2.122 2.121 0 4.242 0 4.242l-0.707 0.707s-2.829-2.828 0-5.656c1.048-1.048 2.101-1.312 3.006-1.238l-0.885-0.8827 0.707-0.707zm2.828 2.828s2.828 2.828 0 5.656c-1.049 1.048-2.102 1.312-3.006 1.238l0.885 0.883-0.707 0.707-2.121-2.121 2.121-2.121 0.707 0.707-0.928 0.928c0.701 0.086 1.515-0.101 2.342-0.928 2.121-2.121 0-4.242 0-4.242l0.707-0.7062z" fill="currentColor"/>
</svg>
